modules/stroke-7/icons/medal.svg

<?xml version="1.0" encoding="utf-8"?>
<!-- Generated by IcoMoon.io -->
<!DOCTYPE svg PUBLIC "-//W3C//DTD SVG 1.1//EN" "http://www.w3.org/Graphics/SVG/1.1/DTD/svg11.dtd">
<svg version="1.1" xmlns="http://www.w3.org/2000/svg" xmlns:xlink="http://www.w3.org/1999/xlink" width="19" height="32" viewBox="0 0 19 32">
<g id="icomoon-ignore">
</g>
<path d="M13.608 12.783c0.639-1.52 2.652-6.383 2.652-7.414v-4.055h-13.637v4.055c0 1.034 2 5.927 2.624 7.428-3.106 1.546-5.246 4.743-5.246 8.448 0 5.214 4.227 9.441 9.441 9.441s9.441-4.227 9.441-9.441c-0-3.717-2.153-6.923-5.275-8.463zM3.671 5.368v-3.006h5.227v7.177h1.049v-7.177h5.264v3.006c0 0.575-1.287 3.96-2.569 7.004-1.001-0.361-2.075-0.568-3.2-0.568-1.136 0-2.221 0.211-3.23 0.579-1.090-2.624-2.54-6.383-2.54-7.015zM9.441 29.637c-4.627 0-8.392-3.765-8.392-8.392s3.765-8.392 8.392-8.392c4.627 0 8.392 3.765 8.392 8.392s-3.765 8.392-8.392 8.392z" fill="#000000"></path>
<path d="M9.441 14.951c-3.476 0-6.294 2.818-6.294 6.294s2.818 6.294 6.294 6.294c3.477 0 6.294-2.818 6.294-6.294s-2.817-6.294-6.294-6.294zM9.441 26.49c-2.892 0-5.245-2.353-5.245-5.245s2.353-5.245 5.245-5.245c2.893 0 5.245 2.353 5.245 5.245s-2.352 5.245-5.245 5.245z" fill="#000000"></path>
</svg>

<svg xmlns="http://www.w3.org/2000/svg" width="19" height="32"><path d="M13.608 12.783c.639-1.52 2.652-6.383 2.652-7.414V1.314H2.623v4.055c0 1.034 2 5.927 2.624 7.428C2.141 14.343.001 17.54.001 21.245a9.441 9.441 0 0 0 18.882 0c0-3.717-2.153-6.923-5.275-8.463zM3.671 5.368V2.362h5.227v7.177h1.049V2.362h5.264v3.006c0 .575-1.287 3.96-2.569 7.004a9.405 9.405 0 0 0-3.2-.568 9.402 9.402 0 0 0-3.23.579C5.122 9.759 3.672 6 3.672 5.368zm5.77 24.269c-4.627 0-8.392-3.765-8.392-8.392s3.765-8.392 8.392-8.392c4.627 0 8.392 3.765 8.392 8.392s-3.765 8.392-8.392 8.392z"/><path d="M9.441 14.951a6.294 6.294 0 1 0 0 12.588 6.294 6.294 0 0 0 0-12.588zm0 11.539c-2.892 0-5.245-2.353-5.245-5.245S6.549 16 9.441 16c2.893 0 5.245 2.353 5.245 5.245s-2.352 5.245-5.245 5.245z"/></svg>
